64x64/mimetypes/application-atom+xml.svg

<svg xmlns="http://www.w3.org/2000/svg" width="64" height="64" version="1.1">
 <path style="opacity:0.2" d="M 12.75,5 C 11.2265,5 10,6.2488 10,7.8 v 50.4 c 0,1.55008 1.2265,2.8 2.75,2.8 h 38.5 C 52.7724,61 54,59.75008 54,58.2 V 23 L 40,19 36,5 Z"/>
 <path style="fill:#f4f4f7" d="M 12.75,4 C 11.2265,4 10,5.2488 10,6.8 v 50.4 c 0,1.55008 1.2265,2.8 2.75,2.8 h 38.5 C 52.7724,60 54,58.75008 54,57.2 V 22 L 40,18 36,4 Z"/>
 <path style="opacity:0.2" d="M 54,23 36,5 V 20.1875 C 36,21.74675 37.2555,23 38.8125,23 Z"/>
 <path style="fill:#fafafa" d="M 54,22 36,4 V 19.1875 C 36,20.74675 37.2555,22 38.8125,22 Z"/>
 <path style="opacity:0.2;fill:#f4f4f7" d="M 12.75 4 C 11.2265 4 10 5.2495812 10 6.8007812 L 10 7.8007812 C 10 6.2495813 11.2265 5 12.75 5 L 36 5 L 36 4 L 12.75 4 z"/>
 <path style="fill:#9c40d3" d="M 33.455078 30 L 28 51.287109 L 30.544922 52 L 36 30.712891 L 33.455078 30 z M 37 30 L 37 34.072266 L 43.1875 39.5 L 37 44.927734 L 37 49 L 48 39.679688 L 37 30 z M 27 33 L 16 42.679688 L 27 52 L 27 47.927734 L 20.8125 42.5 L 27 37.072266 L 27 33 z"/>
</svg>

<svg xmlns="http://www.w3.org/2000/svg" width="64" height="64"><path style="opacity:.2" d="M12.75 5C11.226 5 10 6.249 10 7.8v50.4c0 1.55 1.226 2.8 2.75 2.8h38.5c1.522 0 2.75-1.25 2.75-2.8V23l-14-4-4-14z"/><path style="fill:#f4f4f7" d="M12.75 4C11.226 4 10 5.249 10 6.8v50.4c0 1.55 1.226 2.8 2.75 2.8h38.5c1.522 0 2.75-1.25 2.75-2.8V22l-14-4-4-14z"/><path style="opacity:.2" d="M54 23 36 5v15.188A2.806 2.806 0 0 0 38.813 23z"/><path style="fill:#fafafa" d="M54 22 36 4v15.188A2.806 2.806 0 0 0 38.813 22z"/><path style="opacity:.2;fill:#f4f4f7" d="M12.75 4C11.226 4 10 5.25 10 6.8v1C10 6.25 11.226 5 12.75 5H36V4H12.75z"/><path style="fill:#9c40d3" d="M33.455 30 28 51.287l2.545.713L36 30.713 33.455 30zM37 30v4.072l6.188 5.428L37 44.928V49l11-9.32L37 30zm-10 3-11 9.68L27 52v-4.072L20.812 42.5 27 37.072V33z"/></svg>
